site/img/logos/autentia.svg

<?xml version="1.0" encoding="UTF-8"?>
<svg width="400px" height="360px" viewBox="0 0 400 360" version="1.1" xmlns="http://www.w3.org/2000/svg" xmlns:xlink="http://www.w3.org/1999/xlink">
    <title>logos/autentia</title>
    <g id="logos/autentia" stroke="none" stroke-width="1" fill="none" fill-rule="evenodd">
        <path d="M268.270382,268.700469 L268.270382,277.860837 L220.362595,277.860837 L220.362595,268.700469 L268.270382,268.700469 Z M76.9561865,213.369693 L76.9561865,237.374923 C76.9561865,243.948335 80.2657712,247.71884 86.0367584,247.71884 C88.9641752,247.71884 91.9616192,246.162554 94.7256496,243.211312 L95.1162144,242.784317 L95.1162144,213.369693 L109.939314,213.369693 L109.939314,259.54038 L95.1162144,259.54038 L95.1162144,255.976898 L94.3997232,256.527101 C90.4339136,259.574418 86.41844,260.993449 81.7629248,260.993449 C69.9529803,260.993449 62.2804113,252.840661 62.1281409,240.185477 L62.125832,239.800613 L62.125832,213.369693 L76.9561865,213.369693 Z M140.922853,194.398646 L140.922853,213.369469 L156.929502,213.369469 L156.929502,225.964975 L140.922853,225.964975 L140.922853,239.903622 C140.922853,244.755001 143.698418,247.426775 148.738964,247.426775 C150.580412,247.426775 152.628895,247.114788 155.312422,246.612751 L156.709086,246.346459 L158.344627,258.795765 C152.42186,260.650048 149.030806,260.993226 144.566688,260.993226 C133.457812,260.993226 126.239408,253.066835 126.094715,240.762653 L126.092498,240.384631 L126.092498,225.964975 L116.880235,225.964975 L116.880235,213.369469 L126.092498,213.369469 L126.092498,202.029496 L140.922853,194.398646 Z M297.992026,190.27994 L297.992026,213.369469 L313.997002,213.369469 L313.997002,225.964975 L297.992026,225.964975 L297.992026,239.903622 C297.992026,244.755001 300.767033,247.426775 305.806463,247.426775 C307.634463,247.426775 309.663239,247.119966 312.313274,246.625262 L313.776586,246.346459 L315.413242,258.795765 C309.490475,260.650048 306.100537,260.993226 301.635862,260.993226 C290.525329,260.993226 283.306907,253.066835 283.162214,240.762653 L283.159998,240.384631 L283.159998,225.964975 L273.948293,225.964975 L273.948293,213.369469 L283.159998,213.369469 L283.159998,197.912464 L297.992026,190.27994 Z M188.05645,212.303717 C201.962733,212.303717 211.675535,221.81675 211.675535,235.439561 L211.672534,236.591524 C211.663533,237.748805 211.627526,238.917246 211.483498,240.053694 L211.402108,240.619053 L177.758849,240.619053 L177.928485,241.19046 C179.436798,246.276205 183.344575,249.077438 188.93365,249.077438 C192.111338,249.077438 194.666435,247.952706 196.191666,245.896293 L196.345758,245.680245 L211.063393,245.680245 C208.694621,254.767513 199.999079,260.606021 188.73667,260.606021 C173.863349,260.606021 163.475349,250.653829 163.475349,236.403253 C163.475349,222.213498 173.583226,212.303717 188.05645,212.303717 Z M22.9383069,212.303661 C27.5184909,212.303661 31.6425897,213.406256 35.2065333,215.581425 L35.6002166,215.827524 L36.2849005,216.266123 L36.2849005,213.369469 L51.115255,213.369469 L51.115255,259.540157 L36.2849005,259.540157 L36.2849005,256.54864 L35.6002166,256.987797 C31.9468949,259.325321 27.6870113,260.511102 22.9383069,260.511102 C10.0755119,260.511102 0,249.921658 0,236.403197 C0,222.889757 10.0755119,212.303661 22.9383069,212.303661 Z M371.822494,212.303661 C376.402678,212.303661 380.527295,213.406256 384.090776,215.581425 L384.484403,215.827524 L385.169087,216.266123 L385.169087,213.369469 L400,213.369469 L400,259.540157 L385.169087,259.540157 L385.169087,256.54864 L384.484403,256.987797 C380.831082,259.325321 376.571198,260.511102 371.822494,260.511102 C358.960257,260.511102 348.884187,249.921658 348.884187,236.403197 C348.884187,222.889757 358.960257,212.303661 371.822494,212.303661 Z M248.634518,211.916064 C260.443357,211.916064 268.115368,220.069401 268.267627,232.723512 L268.269936,233.108343 L268.269936,259.54038 L253.345277,259.54038 L253.345277,235.628337 C253.345277,229.055483 250.073079,225.284978 244.367938,225.284978 C240.588143,225.284978 238.35451,226.812849 235.783358,229.646681 L235.185807,230.319386 L235.185807,259.54038 L220.362706,259.54038 L220.362706,213.369693 L235.185807,213.369693 L235.185807,217.055379 L235.908436,216.481181 C239.769339,213.409311 243.93157,211.916064 248.634518,211.916064 Z M339.443138,213.369525 L339.442022,259.540213 L324.611667,259.539654 L324.611667,213.369525 L339.443138,213.369525 Z M26.0431002,224.218947 C19.4841964,224.218947 14.5379548,229.45703 14.5379548,236.403197 C14.5379548,243.295793 19.4841964,248.493141 26.0431002,248.493141 C33.7554202,248.493141 38.1776861,244.087616 38.1776861,236.405986 L38.1699252,235.889775 C38.0532827,232.000778 36.5084907,224.218947 26.0431002,224.218947 Z M374.928403,224.218947 C368.368942,224.218947 363.4227,229.45703 363.4227,236.403197 C363.4227,243.295793 368.368942,248.493141 374.928403,248.493141 C382.528401,248.493141 386.934101,244.214387 387.060206,236.737902 L387.062989,236.405986 C387.062989,232.741505 385.880556,224.218947 374.928403,224.218947 Z M188.05645,223.539341 C182.872305,223.539341 179.150298,226.416349 177.801124,231.446765 L177.725926,231.739366 L177.590328,232.290126 L197.898712,232.290126 L197.810546,231.771173 C196.913258,226.463338 193.449104,223.539341 188.05645,223.539341 Z M331.53183,188.248655 C334.033409,188.135378 336.436778,189.033782 338.158254,190.683831 C339.799932,192.258549 340.705032,194.401882 340.706149,196.717643 C340.707822,201.154976 336.79893,204.99579 332.171314,205.105161 C329.624536,205.175471 327.295382,204.278741 325.593996,202.605256 C324.008677,201.045605 323.142638,198.934635 323.158262,196.660725 C323.188395,192.212791 326.94495,188.438938 331.53183,188.248655 Z" id="Shape" fill="#FFFFFF" fill-rule="nonzero"></path>
    </g>
</svg>

<svg width="400" height="360" viewBox="0 0 400 360" xmlns="http://www.w3.org/2000/svg"><path d="M268.27 268.7v9.16h-47.907v-9.16h47.907zM76.956 213.37v24.005c0 6.573 3.31 10.344 9.08 10.344 2.928 0 5.926-1.556 8.69-4.508l.39-.427V213.37h14.823v46.17H95.116v-3.563l-.716.55c-3.966 3.047-7.982 4.466-12.637 4.466-11.81 0-19.483-8.152-19.635-20.808l-.002-.384V213.37h14.83zm63.967-18.971v18.97h16.007v12.596h-16.007v13.939c0 4.851 2.775 7.523 7.816 7.523 1.841 0 3.89-.312 6.573-.814l1.397-.267 1.636 12.45c-5.923 1.854-9.314 2.197-13.778 2.197-11.11 0-18.328-7.926-18.472-20.23l-.003-.378v-14.42h-9.212v-12.596h9.212v-11.34l14.83-7.63zm157.069-4.12v23.09h16.005v12.596h-16.005v13.939c0 4.851 2.775 7.523 7.814 7.523 1.828 0 3.857-.307 6.507-.802l1.464-.279 1.636 12.45c-5.923 1.854-9.312 2.197-13.777 2.197-11.11 0-18.33-7.926-18.474-20.23l-.002-.378v-14.42h-9.212v-12.596h9.212v-15.457l14.832-7.632zm-109.936 22.025c13.907 0 23.62 9.513 23.62 23.136l-.003 1.152c-.01 1.157-.045 2.325-.19 3.462l-.08.565h-33.644l.17.571c1.508 5.086 5.416 7.887 11.005 7.887 3.177 0 5.732-1.124 7.258-3.18l.154-.217h14.717c-2.368 9.088-11.064 14.926-22.326 14.926-14.874 0-25.262-9.952-25.262-24.203 0-14.19 10.108-24.1 24.581-24.1zm-165.118 0c4.58 0 8.705 1.102 12.269 3.277l.393.247.685.438v-2.897h14.83v46.171h-14.83v-2.991l-.685.439c-3.653 2.337-7.913 3.523-12.662 3.523C10.076 260.511 0 249.921 0 236.403c0-13.513 10.076-24.1 22.938-24.1zm348.884 0c4.58 0 8.705 1.102 12.269 3.277l.393.247.685.438v-2.897H400v46.171h-14.83v-2.991l-.686.439c-3.653 2.337-7.913 3.523-12.662 3.523-12.862 0-22.938-10.59-22.938-24.108 0-13.513 10.076-24.1 22.938-24.1zm-123.187-.388c11.808 0 19.48 8.153 19.633 20.808l.002.384v26.432h-14.925v-23.912c0-6.573-3.272-10.343-8.977-10.343-3.78 0-6.013 1.528-8.585 4.362l-.597.672v29.221h-14.823v-46.17h14.823v3.685l.722-.574c3.861-3.072 8.024-4.565 12.727-4.565zm90.808 1.454l-.001 46.17h-14.83v-46.17h14.831zm-313.4 10.849c-6.559 0-11.505 5.238-11.505 12.184 0 6.893 4.946 12.09 11.505 12.09 7.712 0 12.135-4.405 12.135-12.087l-.008-.516c-.117-3.89-1.662-11.671-12.127-11.671zm348.885 0c-6.56 0-11.505 5.238-11.505 12.184 0 6.893 4.946 12.09 11.505 12.09 7.6 0 12.006-4.279 12.132-11.755l.003-.332c0-3.664-1.182-12.187-12.135-12.187zm-186.872-.68c-5.184 0-8.906 2.877-10.255 7.908l-.075.292-.136.551h20.31l-.088-.519c-.898-5.308-4.362-8.232-9.755-8.232zm143.476-35.29c2.501-.114 4.905.785 6.626 2.435 1.642 1.575 2.547 3.718 2.548 6.034.002 4.437-3.907 8.278-8.535 8.387-2.546.07-4.876-.826-6.577-2.5-1.585-1.56-2.451-3.67-2.436-5.944.03-4.448 3.787-8.222 8.374-8.412z" fill="#FFF"/></svg>
